X:1
T:Ode to Joy
C:Ludwig van Beethoven, Symphony No. 9, 1824
M:4/4
L:1/4
Q:1/4=100
K:D
|: E E F G | G F E D | C C D E | E3 D |
   E E F G | G F E D | C C D E | D3 z |
   D D E C | D EF E C | D EF E D | C D G, z |
   E E F G | G F E D | C C D E | D4 :|
